packages/ui-solid/icons/question_28.svg

<svg width="28" height="28" viewBox="0 0 28 28" fill="none" xmlns="http://www.w3.org/2000/svg">
<path fill-rule="evenodd" clip-rule="evenodd" d="M14 23.2C19.081 23.2 23.2 19.081 23.2 14C23.2 8.91898 19.081 4.8 14 4.8C8.91898 4.8 4.8 8.91898 4.8 14C4.8 19.081 8.91898 23.2 14 23.2ZM14 25C20.0751 25 25 20.0751 25 14C25 7.92487 20.0751 3 14 3C7.92487 3 3 7.92487 3 14C3 20.0751 7.92487 25 14 25Z" fill="#007AFF"/>
<path d="M15.25 18.75C15.25 19.4404 14.6904 20 14 20C13.3096 20 12.75 19.4404 12.75 18.75C12.75 18.0596 13.3096 17.5 14 17.5C14.6904 17.5 15.25 18.0596 15.25 18.75Z" fill="#007AFF"/>
<path fill-rule="evenodd" clip-rule="evenodd" d="M14.0102 10C12.8791 10 12.5195 10.7124 12.4699 10.9101C12.3354 11.4458 11.7922 11.771 11.2565 11.6366C10.7209 11.5021 10.3956 10.9589 10.5301 10.4232C10.7594 9.50981 11.7943 8 14.0102 8C16.226 8 17.261 9.50981 17.4902 10.4232C17.7172 11.3272 17.6427 12.1183 17.3441 12.7998C17.0553 13.4589 16.5913 13.9356 16.1766 14.2853C15.9681 14.4611 15.7588 14.6156 15.5793 14.7458C15.5449 14.7708 15.5121 14.7946 15.4807 14.8173C15.3386 14.9201 15.226 15.0016 15.1255 15.0816C15.0618 15.1324 15.0188 15.1704 14.9907 15.1973C14.8991 15.6551 14.4949 16 14.0102 16C13.4579 16 13.0102 15.5523 13.0102 15C13.0102 14.589 13.1798 14.2648 13.3489 14.0406C13.5117 13.8248 13.7126 13.6501 13.8792 13.5174C14.0197 13.4055 14.1787 13.2905 14.3217 13.1872C14.35 13.1667 14.3777 13.1467 14.4045 13.1272C14.5776 13.0016 14.7376 12.8826 14.8873 12.7564C15.1891 12.5019 15.3971 12.2598 15.5123 11.9971C15.6176 11.7567 15.6791 11.4228 15.5504 10.9101C15.5008 10.7124 15.1412 10 14.0102 10Z" fill="#007AFF"/>
</svg>

<svg xmlns="http://www.w3.org/2000/svg" width="28" height="28" fill="none"><path fill="currentColor" fill-rule="evenodd" d="M14 23.2a9.2 9.2 0 1 0 0-18.4 9.2 9.2 0 0 0 0 18.4m0 1.8c6.075 0 11-4.925 11-11S20.075 3 14 3 3 7.925 3 14s4.925 11 11 11" clip-rule="evenodd"/><path fill="currentColor" d="M15.25 18.75a1.25 1.25 0 1 1-2.5 0 1.25 1.25 0 0 1 2.5 0"/><path fill="currentColor" fill-rule="evenodd" d="M14.01 10c-1.13 0-1.49.712-1.54.91a1 1 0 0 1-1.94-.487C10.76 9.51 11.794 8 14.01 8s3.251 1.51 3.48 2.423c.227.904.153 1.695-.146 2.377-.289.659-.753 1.136-1.167 1.485a10 10 0 0 1-.696.532 10 10 0 0 0-.355.265q-.095.075-.135.115A1 1 0 0 1 13.01 15c0-.411.169-.735.338-.96.163-.215.364-.39.53-.523.14-.111.3-.226.443-.33l.083-.06c.173-.125.333-.244.482-.37.302-.255.51-.497.625-.76.106-.24.167-.574.038-1.087-.05-.198-.409-.91-1.54-.91" clip-rule="evenodd"/></svg>
